X:1
T:Title
L:1/8
Q:1/4=90
M:4/4
K:G
V:1 treble nm="Church Organ, Staff"
V:1
 B2 d2 B2 G2- | GD E2 G2 D2 | G2 F2 GA B2 | c2 d6 | d2 d2 B2 G2 | D2 E2- E/ z/ E E2 | E2 c2 A2 F2 | %7
w: By~Miss~Genevieve~Irons * * *|||||||
 D2 GA Bc d2 | B2 G2 ABcB | A2 G6 |] %10
w: |||

